synths/sBTC.svg

<svg width="480" height="480" viewBox="0 0 480 480" fill="none" xmlns="http://www.w3.org/2000/svg"><mask id="mask0-863483" maskUnits="userSpaceOnUse" x="0" y="0" width="480" height="480"><circle cx="240" cy="240" r="240" fill="url(#paint0_linear-859765)"/></mask><g mask="url(#mask0-863483)"><circle cx="240" cy="240" r="240" fill="#31D8A4"/><circle cx="240" cy="240" r="208" fill="#fff"/></g><circle cx="240" cy="240" r="184" fill="#0E052F"/><path d="M240 440c110.457 0 200-89.543 200-200S350.457 40 240 40 40 129.543 40 240s89.543 200 200 200z" fill="#F7931A"/><path d="M329.865 215.25c3.925-26.2-16.037-40.287-43.312-49.688l8.85-35.5-21.6-5.374-8.625 34.562c-5.675-1.425-11.5-2.75-17.313-4.075l8.688-34.787-21.6-5.388-8.85 35.487c-4.7-1.075-9.325-2.124-13.8-3.249l.025-.113-29.8-7.437-5.75 23.075s16.037 3.675 15.7 3.9c8.75 2.187 10.325 7.975 10.062 12.575l-10.075 40.437c.6.15 1.375.375 2.25.712l-2.287-.562-14.125 56.65c-1.075 2.65-3.788 6.637-9.913 5.125.225.312-15.7-3.912-15.7-3.912l-10.725 24.725 28.125 7.012c5.225 1.313 10.35 2.688 15.388 3.975l-8.938 35.9 21.588 5.375 8.85-35.5a988.33 988.33 0 0017.225 4.462l-8.825 35.35 21.6 5.375 8.937-35.824c36.85 6.974 64.55 4.162 76.213-29.163 9.4-26.825-.463-42.312-19.85-52.4 14.125-3.25 24.75-12.537 27.587-31.725zm-49.375 69.225c-6.662 26.838-51.85 12.325-66.5 8.688l11.875-47.563c14.65 3.662 61.613 10.9 54.625 38.875zm6.688-69.612c-6.088 24.412-43.688 12-55.875 8.962l10.75-43.125c12.187 3.037 51.475 8.7 45.125 34.163z" fill="#fff"/><defs><linearGradient id="paint0_linear-859765" x1="240" y1="0" x2="240" y2="701.818" gradientUnits="userSpaceOnUse"><stop stop-color="#08021E"/><stop offset="1" stop-color="#1F0777"/></linearGradient></defs></svg>

<svg width="480" height="480" viewBox="0 0 480 480" fill="none" xmlns="http://www.w3.org/2000/svg">
<mask id="mask0-863483" mask-type="alpha" maskUnits="userSpaceOnUse" x="0" y="0" width="480" height="480">
<circle cx="240" cy="240" r="240" fill="url(#paint0_linear-859765)"/>
</mask>
<g mask="url(#mask0-863483)">
<circle cx="240" cy="240" r="240" fill="#31D8A4"/>
<circle cx="240" cy="240" r="208" fill="white"/>
</g>
<circle cx="240" cy="240" r="184" fill="#0E052F"/>
<path d="M240 440C350.457 440 440 350.457 440 240C440 129.543 350.457 40 240 40C129.543 40 40 129.543 40 240C40 350.457 129.543 440 240 440Z" fill="#F7931A"/>
<path d="M329.865 215.25C333.79 189.05 313.828 174.963 286.553 165.562L295.403 130.062L273.803 124.688L265.178 159.25C259.503 157.825 253.678 156.5 247.865 155.175L256.553 120.388L234.953 115L226.103 150.487C221.403 149.412 216.778 148.363 212.303 147.238L212.328 147.125L182.528 139.688L176.778 162.763C176.778 162.763 192.815 166.438 192.478 166.663C201.228 168.85 202.803 174.638 202.54 179.238L192.465 219.675C193.065 219.825 193.84 220.05 194.715 220.387L192.428 219.825L178.303 276.475C177.228 279.125 174.515 283.112 168.39 281.6C168.615 281.912 152.69 277.688 152.69 277.688L141.965 302.413L170.09 309.425C175.315 310.738 180.44 312.113 185.478 313.4L176.54 349.3L198.128 354.675L206.978 319.175C212.878 320.762 218.603 322.238 224.203 323.637L215.378 358.987L236.978 364.362L245.915 328.538C282.765 335.512 310.465 332.7 322.128 299.375C331.528 272.55 321.665 257.063 302.278 246.975C316.403 243.725 327.028 234.438 329.865 215.25ZM280.49 284.475C273.828 311.313 228.64 296.8 213.99 293.163L225.865 245.6C240.515 249.262 287.478 256.5 280.49 284.475ZM287.178 214.863C281.09 239.275 243.49 226.863 231.303 223.825L242.053 180.7C254.24 183.737 293.528 189.4 287.178 214.863Z" fill="white"/>
<defs>
<linearGradient id="paint0_linear-859765" x1="240" y1="0" x2="240" y2="701.818" gradientUnits="userSpaceOnUse">
<stop stop-color="#08021E"/>
<stop offset="1" stop-color="#1F0777"/>
</linearGradient>
</defs>
</svg>
